img/GirlWithNotes.svg

<svg width="239" height="356" viewBox="0 0 239 356" fill="none" xmlns="http://www.w3.org/2000/svg">
<path d="M139.472 113.506H192.754C192.928 113.506 193.094 113.437 193.217 113.315C193.339 113.192 193.408 113.026 193.408 112.852C193.408 112.679 193.339 112.512 193.217 112.389C193.094 112.267 192.928 112.198 192.754 112.198H139.472C139.298 112.198 139.132 112.267 139.009 112.389C138.886 112.512 138.818 112.679 138.818 112.852C138.818 113.026 138.886 113.192 139.009 113.315C139.132 113.437 139.298 113.506 139.472 113.506Z" fill="#3F3D56"/>
<path d="M164.019 51.2304C162.842 51.8287 161.946 52.8626 161.52 54.1119C161.094 55.3612 161.172 56.7275 161.738 57.9199C161.857 58.1604 161.996 58.3908 162.153 58.6085L152.12 73.1637L157.715 80.8528L169.302 59.4281C170.154 58.7078 170.744 57.7255 170.98 56.6346C171.215 55.5437 171.083 54.4056 170.603 53.3979C170.325 52.8271 169.937 52.3167 169.462 51.8958C168.986 51.475 168.432 51.1519 167.832 50.9451C167.231 50.7382 166.596 50.6517 165.962 50.6904C165.328 50.7291 164.708 50.8922 164.137 51.1705C164.098 51.1899 164.058 51.2099 164.019 51.2304Z" fill="#FFB6B6"/>
<path d="M104.504 54.1649C103.413 54.7884 102.469 55.6394 101.737 56.6601C101.004 57.6809 100.5 58.8474 100.259 60.0804C100.017 61.3134 100.044 62.5838 100.338 63.8055C100.631 65.0271 101.184 66.1712 101.96 67.1599L114.412 83.0442L141.985 103.425C141.985 103.425 161.403 86.4608 161.559 81.1879C161.714 75.9149 159.636 74.7981 161.714 75.9149C163.792 77.0318 165.684 76.1945 164.971 75.6051C164.258 75.0157 164.509 74.9504 164.942 73.944C165.375 72.9377 166.895 68.1922 166.895 68.1922L159.323 62.0113C159.323 62.0113 152.255 66.2987 151.79 68.3147C151.324 70.3308 153.868 69.4316 151.324 70.3308C148.781 71.2301 145.019 68.607 148.032 71.454C151.045 74.301 150.949 75.6712 148.453 75.8853C145.958 76.0995 142.018 83.0469 142.018 83.0469L115.088 55.6301C113.733 54.2511 111.96 53.3595 110.045 53.0944C108.131 52.8293 106.182 53.2058 104.504 54.1649V54.1649Z" fill="#E6E6E6"/>
<path d="M101.798 354.686H19.1074C17.4055 354.684 15.7739 354.007 14.5705 352.804C13.367 351.6 12.69 349.969 12.688 348.267V278.662C12.69 276.96 13.367 275.329 14.5705 274.125C15.7739 272.922 17.4055 272.245 19.1074 272.243H101.798C103.499 272.245 105.131 272.922 106.334 274.125C107.538 275.329 108.215 276.96 108.217 278.662V348.267C108.215 349.969 107.538 351.6 106.334 352.804C105.131 354.007 103.499 354.684 101.798 354.686V354.686Z" fill="white"/>
<path d="M212.627 107.798C195.182 103.456 180.204 94.9198 168.495 80.8291C167.603 80.2822 166.963 79.4037 166.718 78.3861C166.472 77.3685 166.64 76.295 167.185 75.4012L187.552 42.0719C188.099 41.1793 188.978 40.5401 189.995 40.2945C191.013 40.0488 192.087 40.2169 192.98 40.7617L237.112 67.7305C238.005 68.2773 238.644 69.1559 238.89 70.1735C239.135 71.1911 238.967 72.2645 238.422 73.1584L218.055 106.488C217.508 107.38 216.629 108.019 215.612 108.265C214.594 108.511 213.521 108.343 212.627 107.798V107.798Z" fill="#E6E6E6"/>
<path d="M200.86 97.0952C191.674 96.0925 182.128 88.7512 172.488 79.7572C171.652 79.2451 171.053 78.4223 170.823 77.4693C170.593 76.5163 170.75 75.5109 171.261 74.6738L188.765 46.0301C189.277 45.1941 190.1 44.5954 191.053 44.3654C192.006 44.1353 193.011 44.2926 193.848 44.8029L233.12 68.8014C233.955 69.3136 234.554 70.1365 234.784 71.0895C235.014 72.0425 234.857 73.0479 234.347 73.885L223.503 91.6292C221.222 95.3529 217.557 98.0196 213.312 99.0443C209.067 100.069 204.589 99.3681 200.86 97.0952V97.0952Z" fill="white"/>
<path d="M208.914 62.6783L195.327 85.0506C195.22 85.227 195.079 85.3805 194.913 85.5024C194.746 85.6244 194.558 85.7123 194.357 85.7613C194.157 85.8103 193.949 85.8193 193.745 85.7879C193.541 85.7565 193.346 85.6852 193.169 85.5781C192.993 85.471 192.839 85.3303 192.718 85.1639C192.596 84.9975 192.508 84.8087 192.459 84.6083C192.41 84.4079 192.401 84.1999 192.432 83.996C192.464 83.7921 192.535 83.5965 192.642 83.4202L206.229 61.0479C206.336 60.8715 206.477 60.718 206.643 60.5961C206.809 60.4741 206.998 60.3861 207.199 60.3372C207.399 60.2882 207.607 60.2791 207.811 60.3106C208.015 60.342 208.21 60.4133 208.387 60.5204C208.563 60.6275 208.716 60.7682 208.838 60.9346C208.96 61.101 209.048 61.2898 209.097 61.4902C209.146 61.6905 209.155 61.8986 209.124 62.1025C209.092 62.3063 209.021 62.502 208.914 62.6783V62.6783Z" fill="#008BC4"/>
<path d="M214.815 66.2618L201.228 88.6343C201.012 88.9896 200.663 89.2445 200.259 89.343C199.854 89.4414 199.427 89.3754 199.072 89.1594C198.716 88.9434 198.461 88.5951 198.362 88.1909C198.263 87.7868 198.328 87.3598 198.543 87.0039L212.13 64.6315C212.347 64.2761 212.695 64.0212 213.1 63.9228C213.504 63.8243 213.931 63.8903 214.286 64.1063C214.642 64.3223 214.897 64.6706 214.997 65.0748C215.096 65.4789 215.03 65.9059 214.815 66.2619V66.2618Z" fill="#008BC4"/>
<path d="M121.5 136.144C121.5 136.144 119.792 180.396 117.603 187.3C115.227 194.771 115.855 206 112.277 216.861C111.174 220.214 110.045 223.615 108.916 226.989C108.692 227.669 108.461 228.349 108.237 229.029C106.761 233.421 105.284 237.74 103.872 241.822C103.671 242.397 103.47 242.965 103.275 243.526C103.269 243.54 103.269 243.553 103.263 243.559C98.598 256.87 94.5787 267.35 92.9098 269.109C91.1264 270.988 78.7709 272.071 63.4839 272.68C35.1524 273.802 -3.25536 273.309 -3.25536 273.309L-3.6002 257.891C-3.6002 257.891 -3.26265 257.784 -2.63316 257.577C-1.47125 257.206 0.690235 256.515 3.5134 255.597C15.3063 251.78 38.6751 244.105 49.3588 239.924C52.3781 238.746 54.3835 237.842 54.8295 237.379C57.4427 234.693 58.6952 237.278 60.4643 239.85C62.2334 242.421 62.6882 239.791 64.8617 237.81C67.0352 235.829 72.1147 238.34 72.1147 238.34C72.1147 238.34 72.1149 236.599 72.1143 233.824C72.1117 229.727 72.1018 223.352 72.0918 216.97C72.0851 216.964 72.0851 216.964 72.0917 216.964C72.0877 214.562 72.0837 212.16 72.0764 209.882C72.0759 208.115 72.0708 206.42 72.069 204.849C72.0505 200.143 72.0292 196.583 72.0059 195.694C71.9299 192.79 71.989 195.046 74.2389 193.233C74.5749 192.955 74.8928 192.656 75.1907 192.338C75.6693 191.885 76.1075 191.392 76.5005 190.863C76.6609 190.493 75.6209 191.017 74.2466 190.778C73.5018 190.648 72.8071 190.315 72.2382 189.817C69.2857 187.295 72.1905 179.247 72.1905 179.247C65.2934 166.311 65.4827 155.545 68.3336 147.184C70.4698 141.176 73.9706 135.745 78.5608 131.319C80.3073 129.569 82.2165 127.989 84.2626 126.601L84.4371 125.517L86.3405 113.469C91.1211 110.646 96.7002 109.48 102.211 110.154C106.336 110.645 110.348 111.83 114.078 113.659C117.122 115.091 119.991 116.869 122.628 118.96L121.5 136.144Z" fill="#2F2E41"/>
<path d="M62.6523 338L69.83 338.668L75.8772 310.684L65.2839 309.699L62.6523 338Z" fill="#FFB6B6"/>
<path d="M83.3272 348.968L72.6619 340.036L73.1396 334.9L70.6598 334.815L62.9716 334.566L61.0872 334.501L57.8877 352.501L63.2727 352.998L64.7056 348.006L66.6881 353.319L80.9586 354.647C81.6427 354.711 82.3292 354.554 82.9179 354.2C83.5066 353.845 83.9667 353.312 84.2311 352.678C84.4956 352.044 84.5505 351.342 84.3879 350.675C84.2253 350.007 83.8536 349.409 83.3272 348.968Z" fill="#1F1E37"/>
<path d="M102.551 242.963C99.8222 257.829 88.2606 292.671 81.2725 313.066C78.0861 322.383 75.8614 328.691 75.8614 328.691L72.23 327.546L66.1057 325.609L63.8679 324.902L61.1591 324.045C61.1591 324.045 61.7938 290.531 61.3685 272.754C61.2245 267.022 60.9759 262.926 60.5637 262.115C58.8625 258.778 61.7087 258.425 64.712 257.581C67.7218 256.737 65.3729 255.467 64.2017 252.758C63.4099 250.952 64.9672 248.551 66.073 247.177C66.3777 246.791 66.7031 246.422 67.0479 246.071C67.0479 246.071 59.3925 243.467 50.736 240.529C50.7295 240.536 50.7295 240.529 50.7295 240.529C49.8592 240.235 48.9825 239.94 48.1057 239.639C51.1548 238.54 53.1831 237.69 53.6412 237.238C56.3238 234.621 57.5081 237.238 59.2093 239.855C60.9105 242.473 61.434 239.855 63.6586 237.932C65.8833 236.008 70.8953 238.651 70.8953 238.651C70.8953 238.651 70.941 236.911 71.013 234.137C71.1177 230.041 71.2748 223.668 71.4318 217.288C71.4252 217.282 71.4252 217.282 71.4318 217.282C71.4907 214.88 71.5496 212.479 71.6019 210.202C76.2148 213.735 80.6903 217.203 84.747 220.409C84.7535 220.416 84.7666 220.422 84.7666 220.435C94.5223 228.143 101.844 234.333 102.871 236.296C103.336 237.186 103.179 239.548 102.551 242.963Z" fill="#2F2E41"/>
<path d="M75.764 126.828C72.6966 125.892 69.4715 129.051 69.5649 132.256C69.6583 135.462 72.218 138.176 75.1667 139.437C78.1154 140.698 124.858 148.57 128.317 146.791C131.776 145.012 134.289 140.747 132.762 137.17C131.778 134.866 129.658 124.156 127.777 122.502C121.446 116.935 127.256 109.672 131.165 102.203C134.623 95.5955 142.078 90.5416 142.004 83.0847C141.95 77.7251 137.897 73.3582 134.101 69.574L122.032 57.5423L110.575 46.1203C108.127 43.6795 97.6238 42.3883 95.7433 43.5225C91.8133 45.8928 82.0891 85.3861 80.6996 88.988C80.2534 90.1446 83.1527 104.946 84.3347 105.319C87.6008 115.669 81.8572 117.666 75.6138 126.543" fill="#E6E6E6"/>
<path d="M169.526 70.7168C168.246 71.037 167.141 71.8442 166.446 72.9667C165.752 74.0892 165.523 75.4384 165.808 76.7271C165.87 76.9882 165.954 77.2437 166.058 77.4909L153.026 89.4351L156.76 98.1803L172.843 79.8881C173.835 79.3765 174.63 78.551 175.103 77.5404C175.576 76.5297 175.702 75.3908 175.46 74.3014C175.316 73.6828 175.052 73.0986 174.683 72.582C174.313 72.0655 173.846 71.6268 173.307 71.291C172.768 70.9552 172.168 70.7288 171.541 70.6248C170.915 70.5209 170.274 70.5413 169.655 70.6849C169.612 70.695 169.569 70.7056 169.526 70.7168Z" fill="#FFB6B6"/>
<path d="M110.862 60.2716C109.659 60.6354 108.549 61.2539 107.607 62.0851C106.665 62.9162 105.913 63.9406 105.402 65.0884C104.891 66.2362 104.633 67.4805 104.646 68.7368C104.659 69.9931 104.942 71.2319 105.477 72.369L114.063 90.635L136.382 116.664C136.382 116.664 159.101 104.47 160.432 99.3653C161.762 94.2606 159.986 92.7075 161.762 94.2606C163.538 95.8137 165.569 95.4206 165.006 94.6867C164.442 93.9527 164.702 93.9453 165.349 93.0611C165.995 92.1769 168.538 87.8914 168.538 87.8914L162.539 80.1742C162.539 80.1742 154.692 82.7731 153.788 84.6341C152.883 86.4951 155.563 86.1872 152.883 86.4951C150.203 86.803 147.123 83.4053 149.423 86.8538C151.723 90.3023 151.324 91.6164 148.843 91.2672C146.363 90.918 140.97 96.8089 140.97 96.8089L120.85 64.0657C119.838 62.4188 118.309 61.1533 116.502 60.4669C114.695 59.7806 112.712 59.7119 110.862 60.2716Z" fill="#E6E6E6"/>
<path d="M103.377 42.2547C114.181 42.2547 122.939 33.4963 122.939 22.6924C122.939 11.8885 114.181 3.13013 103.377 3.13013C92.5727 3.13013 83.8143 11.8885 83.8143 22.6924C83.8143 33.4963 92.5727 42.2547 103.377 42.2547Z" fill="#FFB6B6"/>
<path d="M88.2606 8.22983C88.4619 6.46932 89.6685 4.2934 90.5079 2.7328C91.3472 1.17219 92.968 -0.102277 94.7366 0.00648183C95.4593 0.0902256 96.151 0.34754 96.7527 0.756465C97.3545 1.16539 97.8484 1.7138 98.1923 2.3549C98.8674 3.64568 99.2353 5.07493 99.2673 6.53125C99.4521 9.78053 98.9095 13.0301 97.6791 16.0431C96.4487 19.0561 94.5614 21.7565 92.1549 23.9475C90.7838 25.1772 89.1338 26.2715 87.2926 26.3131C86.4564 26.2932 85.6327 26.1061 84.8699 25.763C84.1071 25.4199 83.4206 24.9277 82.8509 24.3154C79.8706 21.3307 79.42 16.4239 81.0116 12.5179C82.6032 8.61185 83.3135 7.09193 86.9519 4.9583" fill="#2F2E41"/>
<path d="M115.742 36.3651C115.414 38.1056 118.424 46.3826 117.462 47.8744C117.462 47.8744 107.503 51.3336 103.695 51.5823C99.0427 51.8833 95.3009 49.9747 90.9498 47.1023C90.8709 45.5441 90.42 44.0274 89.6347 42.6792C89.7005 43.7235 89.4882 44.7665 89.0196 45.7021C82.6466 40.6247 80.2544 26.6623 86.5554 20.1781L93.0985 5.12903C91.1356 5.78334 97.0611 -4.32627 103.31 2.99544C111.129 -4.96752 126.276 6.4959 128.174 16.7359C126.347 14.4246 125.396 14.6971 124.928 16.291C124.39 14.9504 123.537 13.7588 122.442 12.8166C122.986 13.893 123.265 15.0846 123.253 16.291C110.919 17.0565 113.215 25.3772 123.324 37.8418C119.586 35.5147 122.108 45.5429 120.112 47.9398C120.014 46.2647 116.095 37.9943 115.742 36.3651Z" fill="#2F2E41"/>
<path d="M165.927 58.5446C169.541 58.5446 172.471 55.6152 172.471 52.0016C172.471 48.3879 169.541 45.4585 165.927 45.4585C162.314 45.4585 159.384 48.3879 159.384 52.0016C159.384 55.6152 162.314 58.5446 165.927 58.5446Z" fill="#74969D"/>
<path d="M97.9428 20.3393C97.785 20.3392 97.6325 20.282 97.5136 20.1783C97.3946 20.0746 97.3171 19.9314 97.2954 19.7752C97.2736 19.6189 97.3091 19.46 97.3952 19.3278C97.4813 19.1955 97.6124 19.0989 97.7641 19.0557C97.9357 18.7726 97.8654 17.5812 97.8089 16.6186C97.5961 13.0043 97.2399 6.95513 103.113 2.87175C103.255 2.77269 103.431 2.73427 103.602 2.76495C103.773 2.79562 103.924 2.89289 104.023 3.03532C104.122 3.17776 104.161 3.35371 104.13 3.52447C104.099 3.69523 104.002 3.8468 103.86 3.94585C98.5894 7.61068 98.9057 12.9854 99.1152 16.5416C99.2347 18.5748 99.3213 20.0435 98.0881 20.323C98.0404 20.3339 97.9917 20.3394 97.9428 20.3393V20.3393Z" fill="#6AC5D7"/>
<path d="M-31 355.012C-31.0003 355.114 -30.9804 355.216 -30.9414 355.31C-30.9023 355.405 -30.845 355.491 -30.7726 355.563C-30.7003 355.635 -30.6143 355.693 -30.5197 355.732C-30.4251 355.771 -30.3237 355.791 -30.2213 355.79H135.508C135.715 355.79 135.913 355.708 136.059 355.562C136.205 355.416 136.287 355.218 136.287 355.012C136.287 354.805 136.205 354.607 136.059 354.461C135.913 354.315 135.715 354.233 135.508 354.233H-30.2213C-30.3237 354.233 -30.4251 354.253 -30.5197 354.292C-30.6143 354.331 -30.7002 354.388 -30.7726 354.461C-30.845 354.533 -30.9023 354.619 -30.9414 354.713C-30.9804 354.808 -31.0003 354.909 -31 355.012V355.012Z" fill="#CCCCCC"/>
<path d="M98.2477 6.03881C94.2542 4.38146 90.0005 3.43878 85.6807 3.25377C82.2543 3.10857 78.1663 3.8726 76.7734 7.00649C75.9284 8.90767 76.3786 11.1361 77.1516 13.0677C77.9245 14.9993 79.0093 16.8243 79.4569 18.8561C80.4211 23.2332 78.1453 27.8719 74.6525 30.6807C71.1597 33.4895 66.6522 34.729 62.2057 35.2925C65.5464 36.532 68.9383 37.7832 72.4891 38.0805C76.0399 38.3778 79.832 37.6059 82.4832 35.2252C85.3521 32.6488 86.4545 28.6474 86.9425 24.8225C87.4305 20.9975 87.4558 17.0583 88.7523 13.4268C90.0489 9.79542 93.0272 6.41351 96.8696 6.09146" fill="#2F2E41"/>
</svg>

<svg width="239" height="356" fill="none" xmlns="http://www.w3.org/2000/svg"><path d="M139.472 113.506h53.282c.174 0 .34-.069.463-.191a.657.657 0 0 0 0-.926.657.657 0 0 0-.463-.191h-53.282a.655.655 0 0 0 0 1.308z" fill="#3F3D56"/><path d="M164.019 51.23a5.066 5.066 0 0 0-2.281 6.69c.119.24.258.47.415.688L152.12 73.165l5.595 7.689 11.587-21.425a5.052 5.052 0 0 0 1.301-6.03 4.838 4.838 0 0 0-4.641-2.708 4.838 4.838 0 0 0-1.943.54z" fill="#FFB6B6"/><path d="M104.504 54.165a8.743 8.743 0 0 0-4.245 5.915 8.732 8.732 0 0 0 .079 3.726 8.73 8.73 0 0 0 1.622 3.354l12.452 15.884 27.573 20.381s19.418-16.964 19.574-22.237c.155-5.273-1.923-6.39.155-5.273s3.97.28 3.257-.31c-.713-.59-.462-.655-.029-1.661s1.953-5.752 1.953-5.752l-7.572-6.18s-7.068 4.287-7.533 6.303c-.466 2.016 2.078 1.117-.466 2.016-2.543.9-6.305-1.724-3.292 1.123s2.917 4.217.421 4.431c-2.495.215-6.435 7.162-6.435 7.162l-26.93-27.417a8.752 8.752 0 0 0-10.584-1.465z" fill="#E6E6E6"/><path d="M101.798 354.686h-82.69a6.428 6.428 0 0 1-6.42-6.419v-69.605a6.428 6.428 0 0 1 6.42-6.419h82.69a6.427 6.427 0 0 1 6.419 6.419v69.605a6.426 6.426 0 0 1-6.419 6.419z" fill="#fff"/><path d="M212.627 107.798c-17.445-4.342-32.423-12.878-44.132-26.969a3.952 3.952 0 0 1-1.31-5.428l20.367-33.33a3.954 3.954 0 0 1 5.428-1.31l44.132 26.97a3.953 3.953 0 0 1 1.31 5.427l-20.367 33.33a3.958 3.958 0 0 1-5.428 1.31z" fill="#E6E6E6"/><path d="M200.86 97.095c-9.186-1.002-18.732-8.344-28.372-17.338a3.702 3.702 0 0 1-1.227-5.083l17.504-28.644a3.701 3.701 0 0 1 5.083-1.227L233.12 68.8a3.705 3.705 0 0 1 1.227 5.084l-10.844 17.744a16.488 16.488 0 0 1-22.643 5.466z" fill="#fff"/><path d="m208.914 62.678-13.587 22.373a1.574 1.574 0 0 1-2.158.527 1.56 1.56 0 0 1-.71-.97 1.579 1.579 0 0 1 .183-1.188l13.587-22.372a1.574 1.574 0 0 1 2.158-.528 1.573 1.573 0 0 1 .527 2.158zM214.815 66.262l-13.587 22.372a1.57 1.57 0 0 1-2.866-.443 1.572 1.572 0 0 1 .181-1.187L212.13 64.63a1.57 1.57 0 0 1 2.685 1.63z" fill="#008BC4"/><path d="M121.5 136.144s-1.708 44.252-3.897 51.156c-2.376 7.471-1.748 18.7-5.326 29.561a2101.452 2101.452 0 0 1-3.361 10.128c-.224.68-.455 1.36-.679 2.04a1540.076 1540.076 0 0 1-4.365 12.793c-.201.575-.402 1.143-.597 1.704-.006.014-.006.027-.012.033-4.665 13.311-8.684 23.791-10.353 25.55-1.784 1.879-14.14 2.962-29.426 3.571-28.332 1.122-66.74.629-66.74.629l-.344-15.418s.337-.107.967-.314c1.162-.371 3.323-1.062 6.146-1.98 11.793-3.817 35.162-11.492 45.846-15.673 3.02-1.178 5.024-2.082 5.47-2.545 2.614-2.686 3.866-.101 5.635 2.471 1.77 2.571 2.224-.059 4.398-2.04 2.173-1.981 7.253.53 7.253.53v-4.516c-.003-4.097-.013-10.472-.023-16.854-.007-.006-.007-.006 0-.006-.004-2.402-.008-4.804-.016-7.082 0-1.767-.005-3.462-.007-5.033-.019-4.706-.04-8.266-.063-9.155-.076-2.904-.017-.648 2.233-2.461.336-.278.654-.577.952-.895.478-.453.916-.946 1.31-1.475.16-.37-.88.154-2.254-.085a4.128 4.128 0 0 1-2.009-.961c-2.952-2.522-.047-10.57-.047-10.57-6.898-12.936-6.708-23.702-3.857-32.063a41.224 41.224 0 0 1 10.227-15.865 38.94 38.94 0 0 1 5.702-4.718l.174-1.084 1.904-12.048a25.197 25.197 0 0 1 15.87-3.315 36.845 36.845 0 0 1 11.867 3.505 43.699 43.699 0 0 1 8.55 5.301l-1.128 17.184z" fill="#2F2E41"/><path d="m62.652 338 7.178.668 6.047-27.984-10.593-.985L62.652 338z" fill="#FFB6B6"/><path d="m83.327 348.968-10.665-8.932.478-5.136-2.48-.085-7.688-.249-1.885-.065-3.2 18 5.386.497 1.433-4.992 1.982 5.313 14.27 1.328a3.22 3.22 0 0 0 3.43-3.972 3.22 3.22 0 0 0-1.06-1.707z" fill="#1F1E37"/><path d="M102.551 242.963c-2.729 14.866-14.29 49.708-21.279 70.103-3.186 9.317-5.41 15.625-5.41 15.625l-3.632-1.145-6.124-1.937-2.238-.707-2.709-.857s.635-33.514.21-51.291c-.145-5.732-.393-9.828-.805-10.639-1.702-3.337 1.145-3.69 4.148-4.534 3.01-.844.66-2.114-.51-4.823-.792-1.806.765-4.207 1.871-5.581.305-.386.63-.755.975-1.106 0 0-7.656-2.604-16.312-5.542-.006.007-.006 0-.006 0-.87-.294-1.747-.589-2.624-.89 3.049-1.099 5.077-1.949 5.535-2.401 2.683-2.617 3.867 0 5.568 2.617 1.701 2.618 2.225 0 4.45-1.923 2.224-1.924 7.236.719 7.236.719l.118-4.514c.105-4.096.262-10.469.419-16.849-.007-.006-.007-.006 0-.006.059-2.402.118-4.803.17-7.08 4.613 3.533 9.088 7.001 13.145 10.207.007.007.02.013.02.026 9.755 7.708 17.077 13.898 18.104 15.861.465.89.308 3.252-.32 6.667z" fill="#2F2E41"/><path d="M75.764 126.828c-3.067-.936-6.292 2.223-6.2 5.428.094 3.206 2.654 5.92 5.603 7.181 2.948 1.261 49.691 9.133 53.15 7.354 3.459-1.779 5.972-6.044 4.445-9.621-.984-2.304-3.104-13.014-4.985-14.668-6.331-5.567-.521-12.83 3.388-20.299 3.458-6.608 10.913-11.661 10.839-19.118-.054-5.36-4.107-9.727-7.903-13.511l-12.069-12.032-11.457-11.422c-2.448-2.44-12.951-3.732-14.832-2.597-3.93 2.37-13.654 41.863-15.043 45.465-.447 1.157 2.453 15.958 3.635 16.331 3.266 10.35-2.478 12.347-8.721 21.224" fill="#E6E6E6"/><path d="M169.526 70.717a5.07 5.07 0 0 0-3.718 6.01c.062.261.146.517.25.764l-13.032 11.944 3.734 8.745 16.083-18.292a5.052 5.052 0 0 0 2.617-5.587 4.85 4.85 0 0 0-2.153-3.01 4.836 4.836 0 0 0-3.781-.574z" fill="#FFB6B6"/><path d="M110.862 60.272a8.745 8.745 0 0 0-6.216 8.465 8.743 8.743 0 0 0 .831 3.632l8.586 18.266 22.319 26.029s22.719-12.194 24.05-17.299c1.33-5.104-.446-6.657 1.33-5.104s3.807 1.16 3.244.426c-.564-.734-.304-.742.343-1.626.646-.884 3.189-5.17 3.189-5.17l-5.999-7.717s-7.847 2.6-8.751 4.46c-.905 1.861 1.775 1.553-.905 1.861-2.68.308-5.76-3.09-3.46.359 2.3 3.448 1.901 4.762-.58 4.413-2.48-.349-7.873 5.542-7.873 5.542l-20.12-32.743a8.75 8.75 0 0 0-9.988-3.794z" fill="#E6E6E6"/><path d="M103.377 42.255c10.804 0 19.562-8.759 19.562-19.563 0-10.803-8.758-19.562-19.562-19.562-10.804 0-19.563 8.759-19.563 19.562 0 10.804 8.759 19.563 19.563 19.563z" fill="#FFB6B6"/><path d="M88.26 8.23c.202-1.76 1.408-3.937 2.248-5.497.84-1.56 2.46-2.835 4.229-2.727a4.51 4.51 0 0 1 3.455 2.349 9.46 9.46 0 0 1 1.075 4.176 21.874 21.874 0 0 1-7.112 17.417c-1.371 1.23-3.021 2.323-4.862 2.365a6.27 6.27 0 0 1-4.442-1.998c-2.98-2.984-3.431-7.891-1.84-11.797 1.592-3.906 2.303-5.426 5.94-7.56" fill="#2F2E41"/><path d="M115.742 36.365c-.328 1.74 2.682 10.018 1.72 11.51 0 0-9.959 3.459-13.767 3.707-4.652.301-8.394-1.607-12.745-4.48a9.77 9.77 0 0 0-1.315-4.423 5.919 5.919 0 0 1-.615 3.023c-6.373-5.077-8.766-19.04-2.465-25.524L93.098 5.13c-1.962.654 3.963-9.455 10.212-2.134 7.819-7.963 22.966 3.5 24.864 13.74-1.827-2.31-2.778-2.038-3.246-.444a9.012 9.012 0 0 0-2.486-3.474 7.538 7.538 0 0 1 .811 3.474c-12.334.765-10.038 9.086.071 21.55-3.738-2.326-1.216 7.702-3.212 10.099-.098-1.675-4.017-9.946-4.37-11.575z" fill="#2F2E41"/><path d="M165.927 58.545a6.544 6.544 0 1 0 0-13.088 6.544 6.544 0 0 0 0 13.088z" fill="#74969D"/><path d="M97.943 20.34a.654.654 0 0 1-.179-1.284c.172-.283.101-1.475.045-2.437-.213-3.615-.57-9.664 5.304-13.747a.653.653 0 1 1 .747 1.074c-5.27 3.665-4.954 9.04-4.745 12.596.12 2.033.206 3.502-1.027 3.781a.646.646 0 0 1-.145.016z" fill="#6AC5D7"/><path d="M-31 355.012a.774.774 0 0 0 .779.778h165.729a.779.779 0 1 0 0-1.557h-165.73a.783.783 0 0 0-.72.48.78.78 0 0 0-.058.299z" fill="#CCC"/><path d="M98.248 6.039A36.905 36.905 0 0 0 85.68 3.254c-3.427-.145-7.515.619-8.908 3.752-.845 1.902-.394 4.13.379 6.062.772 1.931 1.857 3.756 2.305 5.788.964 4.377-1.312 9.016-4.804 11.825-3.493 2.808-8 4.048-12.447 4.611 3.34 1.24 6.732 2.491 10.283 2.788 3.55.298 7.343-.474 9.994-2.855 2.87-2.576 3.971-6.578 4.46-10.402.487-3.826.513-7.765 1.81-11.396 1.296-3.632 4.274-7.013 8.117-7.336" fill="#2F2E41"/></svg>
